assets/images/simple-illustrations/simple-illustration__pillow.svg

<svg xmlns="http://www.w3.org/2000/svg" width="144" height="132" fill="none" viewBox="0 0 144 132"><path fill="#FED607" d="M17.863 33.6636C17.863 33.6636 18.6364 34.437 18.6364 35.987C18.6364 37.537 17.753 42.9536 17.753 42.9536C17.753 42.9536 17.863 43.9503 18.6364 44.3903C19.4097 44.8303 21.1797 44.1703 21.1797 44.1703L27.7064 41.1836L28.703 41.2936L35.3397 44.7236L36.9997 44.3903L37.773 42.7303L36.8897 34.767L37.443 33.4403L42.863 28.3536C42.863 28.3536 42.863 25.8103 41.6463 25.477C40.4297 25.1436 33.683 23.927 33.683 23.927L32.4663 22.6003L29.1497 16.297L27.823 15.9636L26.163 16.847L22.293 23.9236L19.7497 24.697L13.7763 25.6936L12.6697 27.0203L13.113 28.7903L17.8697 33.657L17.863 33.6636Z"/><path fill="#FED607" d="M43.3429 12.4571C43.3429 12.4571 43.7929 12.9071 43.7929 13.8104C43.7929 14.7137 43.2762 17.8704 43.2762 17.8704C43.2762 17.8704 43.3396 18.4504 43.7929 18.7071C44.2462 18.9637 45.2762 18.577 45.2762 18.577L49.0796 16.837L49.6596 16.9004L53.5262 18.8971L54.4929 18.7037L54.9429 17.7371L54.4262 13.097L54.7496 12.3237L57.9062 9.36038C57.9062 9.36038 57.9062 7.87705 57.1962 7.68372C56.4862 7.49038 52.5562 6.78039 52.5562 6.78039L51.8462 6.00705L49.9129 2.33372L49.1396 2.14038L48.1729 2.65705L45.9162 6.78039L44.4329 7.23039L40.9529 7.81038L40.3096 8.58372L40.5662 9.61372L43.3362 12.4504L43.3429 12.4571Z"/><path stroke="#002140" stroke-linecap="round" stroke-linejoin="round" d="M29.753 17.0803L32.7464 23.147C33.0597 23.7803 33.663 24.2203 34.363 24.3236L41.0564 25.297C42.8197 25.5536 43.5231 27.7203 42.2464 28.9636L37.403 33.6836C36.8964 34.177 36.6664 34.887 36.7864 35.587L37.9297 42.2536C38.2297 44.0103 36.3897 45.347 34.813 44.5203L28.8264 41.3736C28.1997 41.0436 27.4531 41.0436 26.8264 41.3736L20.8397 44.5203C19.263 45.3503 17.4197 44.0103 17.7231 42.2536L18.8664 35.587C18.9864 34.8903 18.7564 34.1803 18.2497 33.6836L13.4064 28.9636C12.1297 27.7203 12.8364 25.5536 14.5964 25.297L21.2897 24.3236C21.9897 24.2203 22.593 23.7837 22.9064 23.147L25.8997 17.0803C26.6864 15.4836 28.9664 15.4836 29.753 17.0803Z"/><path stroke="#002140" stroke-linecap="round" stroke-linejoin="round" d="M50.37 2.7L52.1167 6.24001C52.3 6.61001 52.6534 6.86667 53.06 6.92667L56.9667 7.49334C57.9967 7.64334 58.4067 8.90667 57.66 9.63334L54.8334 12.39C54.5367 12.6767 54.4033 13.0933 54.4733 13.5L55.14 17.39C55.3167 18.4133 54.24 19.1967 53.32 18.7133L49.8267 16.8767C49.46 16.6833 49.0233 16.6833 48.66 16.8767L45.1667 18.7133C44.2467 19.1967 43.17 18.4167 43.3467 17.39L44.0133 13.5C44.0833 13.0933 43.9467 12.6767 43.6533 12.39L40.8267 9.63334C40.0833 8.90667 40.4934 7.64334 41.52 7.49334L45.4267 6.92667C45.8367 6.86667 46.1867 6.61001 46.37 6.24001L48.1167 2.7C48.5767 1.76667 49.9067 1.76667 50.3667 2.7H50.37Z"/><path fill="#CCF6FF" d="M9.70623 83.4763C9.70623 83.4763 14.0396 95.5863 23.9962 102.01C35.2929 109.726 45.1729 116.806 85.5129 121.356C85.7429 122.35 86.9562 129.45 91.9062 128.84C99.1429 127.57 94.3496 118.646 94.3496 118.646L108.506 113.56L130.036 103.68C130.036 103.68 138.443 104.563 140.95 102.796C143.456 101.026 141.833 97.193 139.18 96.3063C136.526 95.423 133.133 94.3896 133.133 94.3896C133.133 94.3896 127.086 73.743 107.473 64.1596C87.8596 54.573 73.9996 55.313 66.7729 55.6063C54.6596 58.2296 44.2096 61.7996 44.2096 61.7996L18.6996 76.103C18.6996 76.103 14.8662 75.6596 14.2762 76.8396L6.3129 76.2496C6.3129 76.2496 0.856238 77.283 1.0029 80.2296C1.14957 83.1763 4.54291 83.473 5.57291 83.473H9.7029L9.70623 83.4763Z"/><path fill="#4BA6A6" d="M43.4791 112.693C55.9625 117.6 86.0158 122.486 85.3025 120.91C84.5892 119.333 76.2258 104.216 52.9925 94.9531C29.7591 85.6897 26.4791 85.7997 18.5158 84.2531C10.5525 82.7031 9.70581 83.4797 9.70581 83.4797C9.70581 83.4797 15.7591 101.8 43.4791 112.696V112.693Z"/><path stroke="#134038" stroke-linecap="round" stroke-miterlimit="10" d="M23.3731 85.2397C23.3731 85.2397 17.7565 86.7731 18.3865 96.9164"/><path stroke="#134038" stroke-linecap="round" stroke-miterlimit="10" d="M16.8831 83.9866C16.8831 83.9866 14.0631 85.2732 12.6531 89.4932"/><path stroke="#134038" stroke-linecap="round" stroke-miterlimit="10" d="M31.443 86.9963C31.443 86.9963 23.703 89.123 24.013 102.003"/><path stroke="#134038" stroke-linecap="round" stroke-miterlimit="10" d="M39.0725 89.3499C39.0725 89.3499 31.3158 91.5932 31.2825 106.92"/><path stroke="#134038" stroke-linecap="round" stroke-miterlimit="10" d="M47.8095 92.6565C39.2129 96.7398 39.2629 106.653 39.4496 110.83"/><path stroke="#134038" stroke-linecap="round" stroke-miterlimit="10" d="M54.75 96.2031C54.75 96.2031 47.5634 100.66 48.15 113.926"/><path stroke="#134038" stroke-linecap="round" stroke-miterlimit="10" d="M62.7867 100.256C62.7867 100.256 56.01 104.46 56.1534 116.853"/><path stroke="#134038" stroke-linecap="round" stroke-miterlimit="10" d="M70.3828 105.05C70.3828 105.05 64.6928 108.576 63.8528 118.7"/><path stroke="#134038" stroke-linecap="round" stroke-miterlimit="10" d="M77.2399 110.36C77.2399 110.36 72.9833 111.326 71.5833 119.96"/><path stroke="#134038" stroke-linecap="round" stroke-miterlimit="10" d="M82.2599 115.697C80.7999 116.943 80.8099 120.037 80.6965 120.67"/><path stroke="#002140" stroke-linecap="round" stroke-linejoin="round" d="M9.50977 83.3965C21.2098 112.233 62.9831 120.226 85.5164 121.356"/><path stroke="#002140" stroke-linecap="round" stroke-linejoin="round" d="M81.406 55.8929C48.4894 52.9529 35.216 69.5429 18.0793 76.0796"/><path stroke="#002140" stroke-linecap="round" stroke-linejoin="round" d="M133.136 94.3832C129.513 82.9732 117.866 61.0065 81.4062 55.8965"/><path stroke="#002140" stroke-linecap="round" stroke-linejoin="round" d="M9.78638 83.3665C37.283 84.3598 78.7197 103.68 85.5131 121.356"/><path stroke="#002140" stroke-linecap="round" stroke-linejoin="round" d="M127.47 102.556C130.64 104.18 141.407 105.8 142.07 100.713C142.733 95.6264 133.223 94.5198 133.223 94.5198"/><path stroke="#002140" stroke-linecap="round" stroke-linejoin="round" d="M16.3529 79.0531C13.3296 74.9231 1.31288 75.2932 1.01622 79.8632C0.722884 84.4332 9.50956 83.3932 9.50956 83.3932"/><path stroke="#002140" stroke-linecap="round" stroke-linejoin="round" d="M14.2969 76.9229C14.8502 76.2962 15.7735 76.1828 16.6102 76.1395C17.0202 76.1195 17.4335 76.1062 17.8402 76.1562C18.4569 76.2362 19.0535 76.4662 19.5635 76.8228"/><path stroke="#002140" stroke-linecap="round" stroke-linejoin="round" d="M85.3035 120.91C86.6168 123.073 86.2835 125.34 87.3301 127.006C88.0668 128.183 89.3301 128.993 90.6735 129.133C92.0168 129.273 93.4135 128.736 94.3335 127.706C94.8668 127.11 95.2368 126.37 95.4668 125.593C96.3301 122.67 95.2101 119.5 93.6835 116.886"/><path stroke="#002140" stroke-linecap="round" stroke-linejoin="round" d="M94.7266 118.913C95.1766 118.813 95.4699 118.386 95.6666 117.973C96.0532 117.16 96.2266 116.246 96.1699 115.346"/><path stroke="#002140" stroke-linecap="round" stroke-linejoin="round" d="M95.6692 117.969C95.6692 117.969 118.856 109.819 129.186 103.669"/></svg>

<svg xmlns="http://www.w3.org/2000/svg" width="144" height="132" fill="none" viewBox="0 0 144 132"><path fill="#fed607" d="M17.863 33.664s.773.773.773 2.323-.883 6.967-.883 6.967.11.996.883 1.436c.774.44 2.544-.22 2.544-.22l6.526-2.986.997.11 6.637 3.43L37 44.39l.773-1.66-.883-7.963.553-1.327 5.42-5.086s0-2.544-1.217-2.877c-1.216-.333-7.963-1.55-7.963-1.55L32.466 22.6l-3.316-6.303-1.327-.333-1.66.883-3.87 7.077-2.543.773-5.974.997-1.106 1.326.443 1.77 4.757 4.867zm25.48-21.207s.45.45.45 1.353c0 .904-.517 4.06-.517 4.06s.064.58.517.837 1.483-.13 1.483-.13l3.804-1.74.58.063 3.866 1.997.967-.193.45-.967-.517-4.64.324-.773 3.156-2.964s0-1.483-.71-1.676c-.71-.194-4.64-.904-4.64-.904l-.71-.773-1.933-3.673-.773-.194-.967.517-2.257 4.123-1.483.45-3.48.58-.643.774.256 1.03 2.77 2.836z"/><path stroke="#002140" stroke-linecap="round" stroke-linejoin="round" d="m29.753 17.08 2.993 6.067a2.15 2.15 0 0 0 1.617 1.177l6.693.973c1.764.257 2.467 2.423 1.19 3.667l-4.843 4.72a2.15 2.15 0 0 0-.617 1.903l1.144 6.667c.3 1.756-1.54 3.093-3.117 2.266l-5.987-3.146a2.14 2.14 0 0 0-2 0L20.84 44.52c-1.577.83-3.42-.51-3.117-2.266l1.143-6.667a2.15 2.15 0 0 0-.616-1.903l-4.844-4.72c-1.276-1.244-.57-3.41 1.19-3.667l6.694-.973c.7-.104 1.303-.54 1.616-1.177L25.9 17.08c.786-1.596 3.066-1.596 3.853 0M50.37 2.7l1.747 3.54c.183.37.536.627.943.687l3.907.566c1.03.15 1.44 1.414.693 2.14l-2.827 2.757a1.25 1.25 0 0 0-.36 1.11l.667 3.89c.177 1.023-.9 1.807-1.82 1.323l-3.493-1.836a1.25 1.25 0 0 0-1.167 0l-3.493 1.836c-.92.484-1.997-.296-1.82-1.323l.666-3.89a1.26 1.26 0 0 0-.36-1.11l-2.826-2.757c-.744-.726-.334-1.99.693-2.14l3.907-.566c.41-.06.76-.317.943-.687l1.747-3.54c.46-.933 1.79-.933 2.25 0z"/><path fill="#ccf6ff" d="M9.706 83.476s4.334 12.11 14.29 18.534c11.297 7.716 21.177 14.796 61.517 19.346.23.994 1.443 8.094 6.393 7.484 7.237-1.27 2.444-10.194 2.444-10.194l14.156-5.086 21.53-9.88s8.407.883 10.914-.884c2.506-1.77.883-5.603-1.77-6.49-2.654-.883-6.047-1.916-6.047-1.916s-6.047-20.647-25.66-30.23C87.86 54.573 74 55.313 66.773 55.606 54.66 58.23 44.21 61.8 44.21 61.8L18.7 76.103s-3.834-.443-4.424.737l-7.963-.59s-5.457 1.033-5.31 3.98 3.54 3.243 4.57 3.243h4.13z"/><path fill="#4ba6a6" d="M43.48 112.693c12.483 4.907 42.536 9.793 41.823 8.217-.714-1.577-9.077-16.694-32.31-25.957s-26.514-9.153-34.477-10.7c-7.963-1.55-8.81-.773-8.81-.773s6.053 18.32 33.773 29.216z"/><path stroke="#134038" stroke-linecap="round" stroke-miterlimit="10" d="M23.373 85.24s-5.617 1.533-4.986 11.676m-1.504-12.929s-2.82 1.286-4.23 5.506m18.79-2.497s-7.74 2.127-7.43 15.007m15.06-12.653s-7.757 2.243-7.79 17.57M47.81 92.657c-8.597 4.083-8.547 13.996-8.36 18.173m15.3-14.627s-7.187 4.457-6.6 17.723m14.637-13.67s-6.777 4.204-6.634 16.597m14.23-11.803s-5.69 3.526-6.53 13.65m13.387-8.34s-4.257.966-5.657 9.6m10.677-4.263c-1.46 1.246-1.45 4.34-1.564 4.973"/><path stroke="#002140" stroke-linecap="round" stroke-linejoin="round" d="M9.51 83.397c11.7 28.836 53.473 36.829 76.006 37.959m-4.11-65.463c-32.917-2.94-46.19 13.65-63.327 20.187m115.057 18.303c-3.623-11.41-15.27-33.376-51.73-38.486"/><path stroke="#002140" stroke-linecap="round" stroke-linejoin="round" d="M9.786 83.367c27.497.993 68.934 20.313 75.727 37.989m41.957-18.8c3.17 1.624 13.937 3.244 14.6-1.843s-8.847-6.193-8.847-6.193M16.353 79.053c-3.023-4.13-15.04-3.76-15.337.81-.293 4.57 8.494 3.53 8.494 3.53"/><path stroke="#002140" stroke-linecap="round" stroke-linejoin="round" d="M14.297 76.923c.553-.627 1.476-.74 2.313-.784.41-.02.823-.033 1.23.017.617.08 1.213.31 1.724.667m65.74 44.087c1.313 2.163.98 4.43 2.026 6.096.737 1.177 2 1.987 3.344 2.127a4.37 4.37 0 0 0 3.66-1.427c.533-.596.903-1.336 1.133-2.113.863-2.923-.257-6.093-1.784-8.707"/><path stroke="#002140" stroke-linecap="round" stroke-linejoin="round" d="M94.727 118.913c.45-.1.743-.527.94-.94.386-.813.56-1.727.503-2.627m-.5 2.623s23.186-8.15 33.516-14.3"/></svg>
